X: 23063
T: Miss Milligan's Strathspey
R: strathspey
B: RSCDS 23-6
Z: 1997 by John Chambers <jc:trillian.mit.edu>
M: C
L: 1/8
%
K: G
   D \
| "G"G>B d<g d<G B2 | "Am"E<A A>G "D7"F>A F<D \
| "G"G>B d<g d<G B2 | "Am"E>A "D7"D<d "G"B<G G :|
   B \
| "G"d>B g>d "C"e>g "G"d<B | "Am"c>A a>g "D7"f>a f<d \
| "G"d>B g>d "C"e>g "G"d<B | "Am"E>A "D7"D<d "G"B<G G ||
   B \
| "G"d>B g>f "Em"e>d c<B | "Am"E<A A>G "D7"F>A d>c \
| "G"(3Bdg (3dBG "Am"(3EAc "D7"(3AFD | "Am"E>A "D7"D<d "G"B<G G |]
%%center Book23/23061-Miss_Milligans_Strathspey-JC.abc

%%sep 2 1 500
%%sep 1 1 500

